icons/outline/adjustments-pin.svg

<!--
category: System
tags: [settings, attach, fix, secure, lock, hold, fasten, anchor, nail, clip]
version: "2.10"
unicode: "f806"
-->
<svg
  xmlns="http://www.w3.org/2000/svg"
  width="24"
  height="24"
  viewBox="0 0 24 24"
  fill="none"
  stroke="currentColor"
  stroke-width="2"
  stroke-linecap="round"
  stroke-linejoin="round"
>
  <path d="M4 10a2 2 0 1 0 4 0a2 2 0 0 0 -4 0m2 -6v4m0 4v8m7.071 -5.69a2 2 0 1 0 -1.071 3.69m0 -14v10m0 4v2m4 -13a2 2 0 1 0 4 0a2 2 0 0 0 -4 0m2 -3v1m0 4v2.5m3.121 8.621a3 3 0 1 0 -4.242 0c.418 .419 1.125 1.045 2.121 1.879c1.051 -.89 1.759 -1.516 2.121 -1.879zm-2.121 -2.121v.01" />
</svg>

<!--
category: System
tags: [settings, attach, fix, secure, lock, hold, fasten, anchor, nail, clip]
version: "2.10"
unicode: "f806"
-->
<svg
  xmlns="http://www.w3.org/2000/svg"
  width="24"
  height="24"
  viewBox="0 0 24 24"
  fill="none"
  stroke="currentColor"
  stroke-width="2"
  stroke-linecap="round"
  stroke-linejoin="round"
>
    <path d="M4 10a2 2 0 1 0 4 0a2 2 0 0 0 -4 0M6 4v4M6 12v8M13.071 14.31a2 2 0 1 0 -1.071 3.69M12 4v10M12 18v2M16 7a2 2 0 1 0 4 0a2 2 0 0 0 -4 0M18 4v1M18 9v2.5M21.121 20.121a3 3 0 1 0 -4.242 0c.418 .419 1.125 1.045 2.121 1.879c1.051 -.89 1.759 -1.516 2.121 -1.879zM19 18v.01" />
</svg>
